packages/product-components/src/images/networks/ada.svg

<svg width="32" height="32" viewBox="0 0 32 32" fill="none" xmlns="http://www.w3.org/2000/svg">
<style>
@media (prefers-color-scheme: dark) {
    .background {
        fill: #F6F6F6;
    }
    .foreground {
        fill: #1F1F1F;
    }
}
</style>
<path class="background" d="M0 8C0 3.58172 3.58172 0 8 0H24C28.4183 0 32 3.58172 32 8V24C32 28.4183 28.4183 32 24 32H8C3.58172 32 0 28.4183 0 24V8Z" fill="#1F1F1F"/>
<path class="foreground" fill-rule="evenodd" clip-rule="evenodd" d="M16.0629 6.61374C15.7045 6.63221 15.3964 6.36131 15.3712 6.01037C15.3461 5.65944 15.629 5.35775 15.9874 5.33312C16.3458 5.31465 16.6539 5.5794 16.6791 5.93034C16.6979 6.28743 16.4213 6.58911 16.0629 6.61374ZM9.9575 6.70015C10.1147 6.93411 10.4291 7.00183 10.668 6.84791C10.9007 6.69399 10.9698 6.37999 10.8189 6.14604C10.6617 5.91823 10.3473 5.85051 10.1084 6.00443C9.86947 6.15835 9.8003 6.46619 9.9575 6.70015ZM21.4263 6.89716C21.1748 6.77403 21.0742 6.46619 21.2 6.21992C21.3257 5.97364 21.6401 5.87513 21.8916 5.99827C22.1431 6.12141 22.2437 6.42309 22.118 6.66936C21.9922 6.92179 21.6841 7.02646 21.4263 6.89716ZM19.8292 17.5608C20.7032 17.5115 21.376 16.7788 21.3257 15.923C21.2817 15.098 20.5838 14.4516 19.7412 14.4516C18.8609 14.4454 18.1504 15.1411 18.1504 16.0031C18.1441 16.865 18.8546 17.5608 19.7349 17.5608H19.8292ZM27.7896 15.9969C27.777 15.7199 27.5318 15.5044 27.2489 15.5228C26.9659 15.5413 26.7459 15.7753 26.7647 16.0523C26.7836 16.3294 27.0225 16.5449 27.3055 16.5264C27.5884 16.5141 27.8022 16.274 27.7896 15.9969ZM19.4645 8.60876C19.2696 8.99048 19.4268 9.4584 19.8167 9.64926C20.2065 9.84012 20.6844 9.6862 20.8793 9.30448C21.0742 8.92275 20.917 8.45484 20.5272 8.26398C20.1373 8.07311 19.6595 8.22703 19.4645 8.60876ZM25.2367 11.5394C24.9348 11.7303 24.5324 11.6502 24.3312 11.3547C24.1363 11.0592 24.218 10.6651 24.5199 10.4681C24.8217 10.2773 25.2241 10.3573 25.4253 10.6528C25.6265 10.9483 25.5385 11.3485 25.2367 11.5394ZM25.1109 15.9785C25.0857 15.5475 24.7148 15.2212 24.2746 15.2458C23.8345 15.2704 23.5012 15.6398 23.5264 16.0647C23.5515 16.4956 23.9225 16.8219 24.3627 16.7973C24.8028 16.7727 25.136 16.4094 25.1109 15.9785ZM25.1486 20.4606C25.4693 20.6207 25.6014 21.0024 25.4379 21.3226C25.2744 21.6366 24.8846 21.7659 24.5576 21.6058C24.2369 21.4457 24.1049 21.064 24.2684 20.7438C24.4318 20.4298 24.828 20.3005 25.1486 20.4606ZM20.7787 13.3741C21.0553 13.7989 21.6338 13.9159 22.0677 13.6389C22.5015 13.3618 22.621 12.7954 22.338 12.3767C22.0614 11.9519 21.4829 11.8349 21.0491 12.112C20.6152 12.3829 20.4957 12.9493 20.7787 13.3741ZM12.2903 9.58769C11.9256 9.82165 11.4289 9.72314 11.1899 9.36604C10.951 9.00895 11.0516 8.52256 11.4163 8.2886C11.781 8.05464 12.2777 8.15315 12.5166 8.51025C12.7619 8.8735 12.6612 9.35373 12.2903 9.58769ZM12.1707 14.4393C13.0447 14.39 13.7993 15.0488 13.8433 15.9046C13.8936 16.7604 13.2208 17.4992 12.3468 17.5423H12.2588C11.3848 17.5423 10.6743 16.8466 10.6743 15.9846C10.668 15.1658 11.3282 14.4824 12.1707 14.4393ZM17.8737 14.3838C18.4774 14.3838 19.0244 14.0514 19.2948 13.528C19.6909 12.7646 19.3765 11.8288 18.5905 11.4347C17.8109 11.0469 16.8551 11.3547 16.459 12.1243C16.3458 12.3459 16.2892 12.5861 16.2892 12.8262C16.2892 13.6881 16.9998 14.3838 17.8737 14.3838ZM6.85138 11.5394C6.5307 11.3793 6.40495 10.9914 6.56843 10.6774C6.73191 10.3634 7.12804 10.2403 7.44871 10.4004C7.76938 10.5605 7.89514 10.9422 7.73795 11.2562C7.56818 11.5702 7.17834 11.6995 6.85138 11.5394ZM11.2905 13.2571C11.5232 12.8077 11.3345 12.2597 10.8755 12.0319C10.4165 11.8103 9.85691 11.9888 9.62426 12.4383C9.39161 12.8877 9.58025 13.4357 10.0392 13.6635C10.4983 13.8913 11.0579 13.7066 11.2905 13.2571ZM15.0883 9.77239C15.1134 10.2773 15.5536 10.6651 16.0692 10.6343C16.5848 10.6097 16.9746 10.1787 16.9495 9.67388C16.9243 9.16903 16.4842 8.78115 15.9686 8.81193C15.453 8.83656 15.0568 9.26754 15.0883 9.77239ZM21.1245 19.9681C20.6655 19.7403 20.4769 19.1923 20.7095 18.7429C20.9422 18.2934 21.5018 18.1087 21.9608 18.3365C22.4198 18.5643 22.6084 19.1123 22.3758 19.5617C22.1431 20.0112 21.5835 20.1959 21.1245 19.9681ZM15.0065 14.1191C15.7422 13.6512 15.9434 12.6907 15.4655 11.9704C15.17 11.5332 14.6733 11.2685 14.1388 11.2685C13.8307 11.2685 13.5289 11.3547 13.2711 11.5209C12.5354 11.9888 12.3342 12.9493 12.8121 13.6697C13.29 14.39 14.2709 14.587 15.0065 14.1191ZM12.7052 18.472C13.1014 17.7024 14.0571 17.3945 14.8368 17.7824C15.6227 18.1703 15.9371 19.1061 15.541 19.8696C15.1449 20.6392 14.1891 20.947 13.4094 20.5591C12.6298 20.1774 12.3091 19.2539 12.6989 18.4843C12.6989 18.4781 12.6989 18.4781 12.7052 18.472ZM11.2213 18.6259C10.9447 18.2011 10.3662 18.0841 9.93236 18.3611C9.49851 18.6382 9.37904 19.2046 9.66199 19.6233C9.93865 20.0481 10.5171 20.1651 10.951 19.888C11.3848 19.6171 11.5043 19.0507 11.2213 18.6259ZM6.88912 16.0277C6.86397 15.5967 7.19722 15.2335 7.63736 15.2089C8.0775 15.1842 8.44847 15.5105 8.47362 15.9415C8.49877 16.3725 8.16552 16.7357 7.72538 16.7604C7.29153 16.785 6.91427 16.4525 6.88912 16.0277ZM5.23542 15.9477C5.22284 15.6706 4.97762 15.4551 4.69467 15.4736C4.41173 15.4921 4.19794 15.726 4.21052 16.0031C4.22938 16.2801 4.46832 16.4956 4.75126 16.4772C5.03421 16.4648 5.24799 16.2247 5.23542 15.9477ZM6.76335 20.4606C7.06516 20.2697 7.46757 20.3498 7.66878 20.6453C7.8637 20.9408 7.78196 21.3349 7.48015 21.5319C7.17834 21.7228 6.77592 21.6427 6.57472 21.3472C6.37351 21.0517 6.46154 20.6515 6.76335 20.4606ZM22.0488 25.2937C21.8916 25.0659 21.5772 24.9982 21.3383 25.1521C21.0994 25.306 21.0302 25.62 21.1937 25.8478C21.3509 26.0756 21.6653 26.1433 21.9042 25.9894C22.1368 25.8355 22.206 25.5277 22.0488 25.2937ZM10.5737 25.1028C10.8252 25.226 10.9258 25.5338 10.8 25.7801C10.6743 26.0264 10.3599 26.1249 10.1084 26.0017C9.85687 25.8786 9.75627 25.5769 9.88202 25.3306C10.0078 25.0782 10.3159 24.9735 10.5737 25.1028ZM16.9934 17.8747C16.2578 18.3488 16.0566 19.3093 16.5344 20.0296C16.8299 20.4729 17.3267 20.7377 17.8674 20.7315C18.1755 20.7315 18.4773 20.6453 18.7351 20.4791C19.4708 20.005 19.6783 19.0445 19.1941 18.3242C18.71 17.6038 17.7291 17.4068 16.9934 17.8747ZM19.7097 22.4123C20.0744 22.1784 20.5711 22.2769 20.8101 22.634C21.049 22.9911 20.9484 23.4774 20.5837 23.7114C20.219 23.9454 19.7223 23.8469 19.4834 23.4898C19.2382 23.1327 19.3388 22.6463 19.7097 22.4123ZM16.6979 25.9894C16.6728 25.6385 16.3647 25.3676 16.0063 25.3861C15.6479 25.4107 15.3712 25.7124 15.3901 26.0695C15.4153 26.4204 15.7234 26.6851 16.0818 26.6667C16.4402 26.642 16.7231 26.3404 16.6979 25.9894ZM16 21.3657C16.5156 21.3349 16.9557 21.7228 16.9809 22.2276C17.0123 22.7325 16.6162 23.1634 16.1006 23.1881C15.585 23.2127 15.1449 22.831 15.1197 22.3261C15.0883 21.8274 15.4844 21.3903 16 21.3657ZM12.5292 23.3974C12.7304 23.0157 12.5732 22.5478 12.1834 22.3507C11.7872 22.1537 11.3094 22.3138 11.1082 22.6955C10.9133 23.0773 11.0704 23.5452 11.4603 23.736C11.8501 23.9331 12.328 23.7791 12.5292 23.3974Z" fill="#F6F6F6"/>
</svg>

<svg xmlns="http://www.w3.org/2000/svg" width="32" height="32" viewBox="0 0 32 32" fill="none">
    <path class="bg" fill="#1F1F1F" d="M0 8a8 8 0 0 1 8-8h16a8 8 0 0 1 8 8v16a8 8 0 0 1-8 8H8a8 8 0 0 1-8-8z"/>
    <path class="fg" fill="#F6F6F6" fill-rule="evenodd" d="M16.063 6.614a.66.66 0 0 1-.692-.604c-.025-.35.258-.652.616-.677a.653.653 0 0 1 .692.597.656.656 0 0 1-.616.684M9.958 6.7a.512.512 0 0 0 .861-.554.52.52 0 0 0-.71-.142.494.494 0 0 0-.152.696m11.468.197a.503.503 0 0 1-.226-.677.524.524 0 0 1 .692-.222.496.496 0 0 1 .226.671.513.513 0 0 1-.692.228M19.83 17.561c.874-.05 1.547-.782 1.497-1.638-.044-.825-.742-1.471-1.585-1.471-.88-.007-1.59.69-1.59 1.551-.007.862.704 1.558 1.584 1.558zm7.96-1.564a.506.506 0 0 0-.54-.474.506.506 0 0 0-.484.53.51.51 0 0 0 .54.473.507.507 0 0 0 .485-.53m-8.324-7.388a.77.77 0 0 0 .352 1.04.8.8 0 0 0 1.062-.345.77.77 0 0 0-.352-1.04.8.8 0 0 0-1.062.345m5.772 2.93a.666.666 0 0 1-.906-.184.636.636 0 0 1 .189-.887.666.666 0 0 1 .905.185.63.63 0 0 1-.188.886m-.126 4.44a.784.784 0 0 0-.836-.733.783.783 0 0 0-.749.819c.026.43.396.757.837.732a.78.78 0 0 0 .748-.819m.038 4.482c.32.16.452.541.289.862a.66.66 0 0 1-.88.283.636.636 0 0 1-.29-.862.664.664 0 0 1 .88-.283m-4.37-7.087a.937.937 0 0 0 1.289.265.897.897 0 0 0 .27-1.262.937.937 0 0 0-1.289-.265.895.895 0 0 0-.27 1.262m-8.49-3.784a.81.81 0 0 1-1.1-.222.77.77 0 0 1 .226-1.077.81.81 0 0 1 1.1.221.76.76 0 0 1-.226 1.078m-.12 4.851c.875-.049 1.63.61 1.673 1.466.05.855-.622 1.594-1.496 1.637h-.088c-.874 0-1.585-.695-1.585-1.557-.006-.82.654-1.503 1.497-1.546m5.704-.055c.603 0 1.15-.333 1.42-.856.397-.763.082-1.7-.704-2.093a1.6 1.6 0 0 0-2.131.69c-.113.22-.17.461-.17.701 0 .862.71 1.558 1.585 1.558M6.85 11.539a.635.635 0 0 1-.283-.862.66.66 0 0 1 .88-.277c.321.16.447.542.29.856a.67.67 0 0 1-.887.283m4.44 1.718a.904.904 0 0 0-.415-1.225.947.947 0 0 0-1.252.406.904.904 0 0 0 .415 1.226.94.94 0 0 0 1.252-.407m3.797-3.485a.92.92 0 0 0 .981.862.92.92 0 0 0 .88-.96.92.92 0 0 0-.98-.862.914.914 0 0 0-.88.96m6.037 10.196a.904.904 0 0 1-.416-1.225.94.94 0 0 1 1.252-.406.904.904 0 0 1 .415 1.225.94.94 0 0 1-1.251.406m-6.118-5.849a1.53 1.53 0 0 0 .459-2.149 1.6 1.6 0 0 0-1.327-.702 1.6 1.6 0 0 0-.868.253 1.53 1.53 0 0 0-.459 2.149c.478.72 1.459.917 2.195.45m-2.302 4.353a1.6 1.6 0 0 1 2.132-.69c.786.388 1.1 1.324.704 2.088a1.6 1.6 0 0 1-2.132.69 1.53 1.53 0 0 1-.71-2.076c0-.006 0-.006.006-.012m-1.484.154a.937.937 0 0 0-1.289-.265.897.897 0 0 0-.27 1.262.937.937 0 0 0 1.289.265.895.895 0 0 0 .27-1.262M6.89 16.028a.78.78 0 0 1 .748-.82.784.784 0 0 1 .837.733.78.78 0 0 1-.749.82.79.79 0 0 1-.836-.733m-1.654-.08a.506.506 0 0 0-.54-.474.51.51 0 0 0-.484.53.51.51 0 0 0 .54.473.507.507 0 0 0 .484-.53m1.528 4.513a.666.666 0 0 1 .906.184.636.636 0 0 1-.189.887.666.666 0 0 1-.905-.185.63.63 0 0 1 .188-.886m15.286 4.833a.52.52 0 0 0-.71-.142.49.49 0 0 0-.145.696.52.52 0 0 0 .71.141.5.5 0 0 0 .145-.695m-11.475-.191a.503.503 0 0 1 .226.677.524.524 0 0 1-.692.222.496.496 0 0 1-.226-.671.513.513 0 0 1 .692-.228m6.42-7.228a1.54 1.54 0 0 0-.46 2.155c.296.443.793.708 1.333.701a1.6 1.6 0 0 0 .868-.252 1.534 1.534 0 0 0 .46-2.155 1.61 1.61 0 0 0-2.202-.45m2.716 4.537a.81.81 0 0 1 1.1.222.77.77 0 0 1-.226 1.077.81.81 0 0 1-1.1-.221.76.76 0 0 1 .226-1.078m-3.012 3.577a.656.656 0 0 0-1.308.08.654.654 0 0 0 .692.598c.358-.025.641-.327.616-.678M16 21.366a.92.92 0 0 1 .98.862.914.914 0 0 1-.88.96c-.515.025-.955-.357-.98-.862a.917.917 0 0 1 .88-.96m-3.47 2.031a.77.77 0 0 0-.347-1.046.81.81 0 0 0-1.075.345.77.77 0 0 0 .352 1.04.803.803 0 0 0 1.07-.339" clip-rule="evenodd"/>
</svg>
